X:15016
T:Out on the Ocean
R:Jig
C:Trad.
O:England
Z:Paul Hardy's Session Tunebook 2015 (see www.paulhardy.net). Creative Commons cc by-nc-sa licenced.
M:6/8
L:1/8
Q:3/8=100
K:G
"G"D2 B BAG|"C"BdB A2 B|"G"GED G2 A|"D"B3 AGE|"G"D2 B BAG|"C"BdB A2 B|"G"GED G2 A|"D"BGF "G"G3:|
"Em"e2 e edB|efe edB|"D"d2 d dBA|ded dBA|"G"G2 A B2 d|"C"ege dBA|"G"GED G2 A|"D"BGF "G"GBd|
"Em"e2 e edB|efe edB|"D"d2 d def|gfe dBA|"G"G2 A B2 d|"C"ege dBA|"G"GED G2 A|"D"BGF "G"G3|]

